Newaita-dark/apps/32/preferences-desktop-cursors.svg

<svg height="32" viewBox="0 0 32 32" width="32" xmlns="http://www.w3.org/2000/svg" xmlns:xlink="http://www.w3.org/1999/xlink"><linearGradient id="a" gradientUnits="userSpaceOnUse" x1="15.87652" x2="15.87652" y1="28.033934" y2="29.35697800003"><stop offset="0" stop-opacity=".27451"/><stop offset="1" stop-opacity="0"/></linearGradient><linearGradient id="b"><stop offset="0" stop-opacity=".313726"/><stop offset=".222222" stop-opacity=".27451"/><stop offset="1" stop-opacity="0"/></linearGradient><radialGradient id="c" cx="450.908936" cy="189.579361" gradientTransform="matrix(.00000017 -.0781325 -.140638 -.0000001 53.453691 63.595331)" gradientUnits="userSpaceOnUse" r="21.166656" xlink:href="#b"/><radialGradient id="d" cx="450.908936" cy="189.579361" gradientTransform="matrix(-.00000017 .0781325 .140638 .0000001 -21.700661 -7.527481)" gradientUnits="userSpaceOnUse" r="21.166656" xlink:href="#b"/><radialGradient id="e" cx="450.908936" cy="189.579361" gradientTransform="matrix(-.00000017 -.0781325 .140638 -.0000001 -21.700661 63.595331)" gradientUnits="userSpaceOnUse" r="21.166656" xlink:href="#b"/><radialGradient id="f" cx="450.908936" cy="189.579361" gradientTransform="matrix(.00000017 .0781325 -.140638 .0000001 53.453689 -7.527481)" gradientUnits="userSpaceOnUse" r="21.166656" xlink:href="#b"/><linearGradient id="g"><stop offset="0" stop-color="#bdbdbd"/><stop offset="1" stop-color="#e0e0e0"/></linearGradient><linearGradient id="h" gradientTransform="matrix(.0753497 0 0 .217412 -5.854013 33.641348)" gradientUnits="userSpaceOnUse" x1="306.916656" x2="305.954559" xlink:href="#g" y1="-25.791676" y2="-135.329163"/><linearGradient id="i" gradientTransform="matrix(.0753497 0 0 .217412 -5.854013 33.641346)" gradientUnits="userSpaceOnUse" x1="306.916656" x2="305.954559" xlink:href="#g" y1="-25.791676" y2="-135.329163"/><linearGradient id="j" gradientUnits="userSpaceOnUse" x1="15.876524" x2="15.876524" y1="28.033934" y2="4.219148"><stop offset="0" stop-color="#424242"/><stop offset="1" stop-color="#616161"/></linearGradient><path d="m4.628906 28.035156h22.492188v1.320313h-22.492188zm0 0" fill="url(#a)"/><path d="m27.121094 28.035156h2.648437v-1.324218h-2.648437zm0 0" fill="url(#c)"/><path d="m4.628906 28.035156h-2.644531v1.320313h2.644531zm0 0" fill="url(#d)"/><path d="m4.628906 28.035156h-2.644531v-1.324218h2.644531zm0 0" fill="url(#e)"/><path d="m27.121094 28.035156h2.648437v1.320313h-2.648437zm0 0" fill="url(#f)"/><path d="m3.308594 4.21875h25.136718c.730469 0 1.324219.59375 1.324219 1.324219v21.167969c0 .730468-.59375 1.324218-1.324219 1.324218h-25.136718c-.730469 0-1.324219-.59375-1.324219-1.324218v-21.167969c0-.730469.59375-1.324219 1.324219-1.324219zm0 0" fill="url(#h)"/><path d="m15.875 4.21875v23.816406h12.570312c.734376 0 1.324219-.589844 1.324219-1.324218v-21.167969c0-.734375-.589843-1.324219-1.324219-1.324219zm0 0" fill="url(#i)"/><path d="m3.308594 28.046875c-.734375 0-1.324219-.589844-1.324219-1.324219v-.34375c0 .734375.589844 1.324219 1.324219 1.324219h25.136718c.734376 0 1.324219-.589844 1.324219-1.324219v.34375c0 .734375-.589843 1.324219-1.324219 1.324219zm0 0" fill-opacity=".235294"/><path d="m3.308594 4.296875c-.734375 0-1.324219.589844-1.324219 1.320313v.34375c0-.730469.589844-1.320313 1.324219-1.320313h25.136718c.734376 0 1.324219.589844 1.324219 1.320313v-.34375c0-.730469-.589843-1.320313-1.324219-1.320313zm0 0" fill="#fff" fill-opacity=".392157"/><path d="m3.308594 4.125c-.785156 0-1.417969.632812-1.417969 1.417969v21.167969c0 .785156.632813 1.417968 1.417969 1.417968h25.136718c.785157 0 1.417969-.632812 1.417969-1.417968v-21.167969c0-.785157-.632812-1.417969-1.417969-1.417969zm0 .1875h25.136718c.683594 0 1.230469.546875 1.230469 1.230469v21.167969c0 .683593-.546875 1.230468-1.230469 1.230468h-25.136718c-.683594 0-1.230469-.546875-1.230469-1.230468v-21.167969c0-.683594.546875-1.230469 1.230469-1.230469zm0 0" fill="#212121"/><path d="m3.308594 4.296875c-.734375 0-1.324219.589844-1.324219 1.320313v.34375c0-.730469.589844-1.320313 1.324219-1.320313h12.566406v-.34375zm0 0" fill="#fff" fill-opacity=".588235"/><path d="m9.261719 9.457031c-.34375.320313-.441407.828125-.234375 1.25l5.710937 11.800781c.195313.410157.632813.648438 1.082031.597657.453126-.050781.824219-.378907.925782-.824219l.992187-4.292969 4.292969-.992187c.445312-.101563.773438-.472656.824219-.925782.050781-.449218-.1875-.886718-.597657-1.082031l-11.800781-5.710937c-.398437-.191406-.871093-.121094-1.195312.179687zm0 0" fill="url(#j)"/><path d="m9.988281 9.070312c-.261719 0-.523437.097657-.726562.285157-.273438.253906-.390625.625-.324219.980469.039062-.222657.152344-.433594.324219-.59375.324219-.300782.796875-.371094 1.195312-.179688l11.800781 5.710938c.3125.148437.527344.441406.585938.769531.007812-.023438.011719-.046875.011719-.070313.050781-.453125-.1875-.886718-.597657-1.085937l-11.800781-5.710938c-.148437-.070312-.308593-.105469-.46875-.105469zm0 0" fill="#fff" fill-opacity=".235294"/><path d="m8.945312 10.46875c-.050781.230469-.027343.472656.082032.695312l5.710937 11.800782c.195313.40625.632813.648437 1.082031.597656.453126-.050781.824219-.382812.925782-.824219l.992187-4.296875 4.292969-.992187c.445312-.101563.773438-.472657.824219-.921875.015625-.121094.007812-.238282-.015625-.347656-.089844.402343-.398438.722656-.808594.816406l-4.292969.992187-.992187 4.292969c-.101563.445312-.472656.773438-.925782.824219-.449218.050781-.886718-.1875-1.082031-.597657l-5.710937-11.800781c-.039063-.078125-.066406-.15625-.082032-.238281zm0 0" fill-opacity=".235294"/><path d="m148.17335-63.701948c-5.499475 5.12451-7.061825 13.248735-3.749642 19.99809l91.366275 188.794471c3.124702 6.561873 10.124033 10.374009 17.310847 9.561587 7.249308-.812422 13.186241-6.061921 14.811086-13.186241l15.873484-68.680941 68.680941-15.873484c7.12432-1.624845 12.373819-7.561778 13.186241-14.811086.812422-7.186814-2.999714-14.186145-9.561587-17.310847l-188.794471-91.366275c-6.374391-3.062207-13.936169-1.937315-19.123174 2.874726zm0 0" fill="none" stroke="#212121" stroke-linecap="round" stroke-linejoin="round" stroke-width="3" transform="matrix(.062506 0 0 .062506 0 13.438783)"/></svg>

<?xml version="1.0" encoding="UTF-8"?>
<svg xmlns="http://www.w3.org/2000/svg" xmlns:xlink="http://www.w3.org/1999/xlink" width="32px" height="32px" viewBox="0 0 32 32" version="1.1">
<defs>
<linearGradient id="linear0" gradientUnits="userSpaceOnUse" x1="254" y1="233.5" x2="254" y2="254.666672" gradientTransform="matrix(0.062506,0,0,0.062506,-0.00000381506,13.438783)">
<stop offset="0" style="stop-color:rgb(0%,0%,0%);stop-opacity:0.27451;"/>
<stop offset="1" style="stop-color:rgb(0%,0%,0%);stop-opacity:0;"/>
</linearGradient>
<radialGradient id="radial0" gradientUnits="userSpaceOnUse" cx="450.908936" cy="189.579361" fx="450.908936" fy="189.579361" r="21.166656" gradientTransform="matrix(0.00000017417,-0.0781325,-0.140638,-0.000000101539,53.453691,63.595331)">
<stop offset="0" style="stop-color:rgb(0%,0%,0%);stop-opacity:0.313726;"/>
<stop offset="0.222222" style="stop-color:rgb(0%,0%,0%);stop-opacity:0.27451;"/>
<stop offset="1" style="stop-color:rgb(0%,0%,0%);stop-opacity:0;"/>
</radialGradient>
<radialGradient id="radial1" gradientUnits="userSpaceOnUse" cx="450.908936" cy="189.579361" fx="450.908936" fy="189.579361" r="21.166656" gradientTransform="matrix(-0.00000017417,0.0781325,0.140638,0.000000101539,-21.700661,-7.527481)">
<stop offset="0" style="stop-color:rgb(0%,0%,0%);stop-opacity:0.313726;"/>
<stop offset="0.222222" style="stop-color:rgb(0%,0%,0%);stop-opacity:0.27451;"/>
<stop offset="1" style="stop-color:rgb(0%,0%,0%);stop-opacity:0;"/>
</radialGradient>
<radialGradient id="radial2" gradientUnits="userSpaceOnUse" cx="450.908936" cy="189.579361" fx="450.908936" fy="189.579361" r="21.166656" gradientTransform="matrix(-0.00000017417,-0.0781325,0.140638,-0.000000101539,-21.700661,63.595331)">
<stop offset="0" style="stop-color:rgb(0%,0%,0%);stop-opacity:0.313726;"/>
<stop offset="0.222222" style="stop-color:rgb(0%,0%,0%);stop-opacity:0.27451;"/>
<stop offset="1" style="stop-color:rgb(0%,0%,0%);stop-opacity:0;"/>
</radialGradient>
<radialGradient id="radial3" gradientUnits="userSpaceOnUse" cx="450.908936" cy="189.579361" fx="450.908936" fy="189.579361" r="21.166656" gradientTransform="matrix(0.00000017417,0.0781325,-0.140638,0.000000101539,53.453689,-7.527481)">
<stop offset="0" style="stop-color:rgb(0%,0%,0%);stop-opacity:0.313726;"/>
<stop offset="0.222222" style="stop-color:rgb(0%,0%,0%);stop-opacity:0.27451;"/>
<stop offset="1" style="stop-color:rgb(0%,0%,0%);stop-opacity:0;"/>
</radialGradient>
<linearGradient id="linear1" gradientUnits="userSpaceOnUse" x1="306.916656" y1="-25.791676" x2="305.954559" y2="-135.329163" gradientTransform="matrix(0.0753497,0,0,0.217412,-5.854013,33.641348)">
<stop offset="0" style="stop-color:rgb(74.117649%,74.117649%,74.117649%);stop-opacity:1;"/>
<stop offset="1" style="stop-color:rgb(87.843138%,87.843138%,87.843138%);stop-opacity:1;"/>
</linearGradient>
<linearGradient id="linear2" gradientUnits="userSpaceOnUse" x1="306.916656" y1="-25.791676" x2="305.954559" y2="-135.329163" gradientTransform="matrix(0.0753497,0,0,0.217412,-5.854013,33.641346)">
<stop offset="0" style="stop-color:rgb(74.117649%,74.117649%,74.117649%);stop-opacity:1;"/>
<stop offset="1" style="stop-color:rgb(87.843138%,87.843138%,87.843138%);stop-opacity:1;"/>
</linearGradient>
<linearGradient id="linear3" gradientUnits="userSpaceOnUse" x1="254" y1="233.5" x2="254" y2="-147.5" gradientTransform="matrix(0.062506,0,0,0.062506,0,13.438783)">
<stop offset="0" style="stop-color:rgb(25.882354%,25.882354%,25.882354%);stop-opacity:1;"/>
<stop offset="1" style="stop-color:rgb(38.039216%,38.039216%,38.039216%);stop-opacity:1;"/>
</linearGradient>
</defs>
<g id="surface1">
<path style=" stroke:none;fill-rule:nonzero;fill:url(#linear0);" d="M 4.628906 28.035156 L 27.121094 28.035156 L 27.121094 29.355469 L 4.628906 29.355469 Z M 4.628906 28.035156 "/>
<path style=" stroke:none;fill-rule:nonzero;fill:url(#radial0);" d="M 27.121094 28.035156 L 29.769531 28.035156 L 29.769531 26.710938 L 27.121094 26.710938 Z M 27.121094 28.035156 "/>
<path style=" stroke:none;fill-rule:nonzero;fill:url(#radial1);" d="M 4.628906 28.035156 L 1.984375 28.035156 L 1.984375 29.355469 L 4.628906 29.355469 Z M 4.628906 28.035156 "/>
<path style=" stroke:none;fill-rule:nonzero;fill:url(#radial2);" d="M 4.628906 28.035156 L 1.984375 28.035156 L 1.984375 26.710938 L 4.628906 26.710938 Z M 4.628906 28.035156 "/>
<path style=" stroke:none;fill-rule:nonzero;fill:url(#radial3);" d="M 27.121094 28.035156 L 29.769531 28.035156 L 29.769531 29.355469 L 27.121094 29.355469 Z M 27.121094 28.035156 "/>
<path style=" stroke:none;fill-rule:nonzero;fill:url(#linear1);" d="M 3.308594 4.21875 L 28.445312 4.21875 C 29.175781 4.21875 29.769531 4.8125 29.769531 5.542969 L 29.769531 26.710938 C 29.769531 27.441406 29.175781 28.035156 28.445312 28.035156 L 3.308594 28.035156 C 2.578125 28.035156 1.984375 27.441406 1.984375 26.710938 L 1.984375 5.542969 C 1.984375 4.8125 2.578125 4.21875 3.308594 4.21875 Z M 3.308594 4.21875 "/>
<path style=" stroke:none;fill-rule:nonzero;fill:url(#linear2);" d="M 15.875 4.21875 L 15.875 28.035156 L 28.445312 28.035156 C 29.179688 28.035156 29.769531 27.445312 29.769531 26.710938 L 29.769531 5.542969 C 29.769531 4.808594 29.179688 4.21875 28.445312 4.21875 Z M 15.875 4.21875 "/>
<path style=" stroke:none;fill-rule:nonzero;fill:rgb(0%,0%,0%);fill-opacity:0.235294;" d="M 3.308594 28.046875 C 2.574219 28.046875 1.984375 27.457031 1.984375 26.722656 L 1.984375 26.378906 C 1.984375 27.113281 2.574219 27.703125 3.308594 27.703125 L 28.445312 27.703125 C 29.179688 27.703125 29.769531 27.113281 29.769531 26.378906 L 29.769531 26.722656 C 29.769531 27.457031 29.179688 28.046875 28.445312 28.046875 Z M 3.308594 28.046875 "/>
<path style=" stroke:none;fill-rule:nonzero;fill:rgb(100%,100%,100%);fill-opacity:0.392157;" d="M 3.308594 4.296875 C 2.574219 4.296875 1.984375 4.886719 1.984375 5.617188 L 1.984375 5.960938 C 1.984375 5.230469 2.574219 4.640625 3.308594 4.640625 L 28.445312 4.640625 C 29.179688 4.640625 29.769531 5.230469 29.769531 5.960938 L 29.769531 5.617188 C 29.769531 4.886719 29.179688 4.296875 28.445312 4.296875 Z M 3.308594 4.296875 "/>
<path style=" stroke:none;fill-rule:nonzero;fill:rgb(12.941177%,12.941177%,12.941177%);fill-opacity:1;" d="M 3.308594 4.125 C 2.523438 4.125 1.890625 4.757812 1.890625 5.542969 L 1.890625 26.710938 C 1.890625 27.496094 2.523438 28.128906 3.308594 28.128906 L 28.445312 28.128906 C 29.230469 28.128906 29.863281 27.496094 29.863281 26.710938 L 29.863281 5.542969 C 29.863281 4.757812 29.230469 4.125 28.445312 4.125 Z M 3.308594 4.3125 L 28.445312 4.3125 C 29.128906 4.3125 29.675781 4.859375 29.675781 5.542969 L 29.675781 26.710938 C 29.675781 27.394531 29.128906 27.941406 28.445312 27.941406 L 3.308594 27.941406 C 2.625 27.941406 2.078125 27.394531 2.078125 26.710938 L 2.078125 5.542969 C 2.078125 4.859375 2.625 4.3125 3.308594 4.3125 Z M 3.308594 4.3125 "/>
<path style=" stroke:none;fill-rule:nonzero;fill:rgb(100%,100%,100%);fill-opacity:0.588235;" d="M 3.308594 4.296875 C 2.574219 4.296875 1.984375 4.886719 1.984375 5.617188 L 1.984375 5.960938 C 1.984375 5.230469 2.574219 4.640625 3.308594 4.640625 L 15.875 4.640625 L 15.875 4.296875 Z M 3.308594 4.296875 "/>
<path style=" stroke:none;fill-rule:nonzero;fill:url(#linear3);" d="M 9.261719 9.457031 C 8.917969 9.777344 8.820312 10.285156 9.027344 10.707031 L 14.738281 22.507812 C 14.933594 22.917969 15.371094 23.15625 15.820312 23.105469 C 16.273438 23.054688 16.644531 22.726562 16.746094 22.28125 L 17.738281 17.988281 L 22.03125 16.996094 C 22.476562 16.894531 22.804688 16.523438 22.855469 16.070312 C 22.90625 15.621094 22.667969 15.183594 22.257812 14.988281 L 10.457031 9.277344 C 10.058594 9.085938 9.585938 9.15625 9.261719 9.457031 Z M 9.261719 9.457031 "/>
<path style=" stroke:none;fill-rule:nonzero;fill:rgb(100%,100%,100%);fill-opacity:0.235294;" d="M 9.988281 9.070312 C 9.726562 9.070312 9.464844 9.167969 9.261719 9.355469 C 8.988281 9.609375 8.871094 9.980469 8.9375 10.335938 C 8.976562 10.113281 9.089844 9.902344 9.261719 9.742188 C 9.585938 9.441406 10.058594 9.371094 10.457031 9.5625 L 22.257812 15.273438 C 22.570312 15.421875 22.785156 15.714844 22.84375 16.042969 C 22.851562 16.019531 22.855469 15.996094 22.855469 15.972656 C 22.90625 15.519531 22.667969 15.085938 22.257812 14.886719 L 10.457031 9.175781 C 10.308594 9.105469 10.148438 9.070312 9.988281 9.070312 Z M 9.988281 9.070312 "/>
<path style=" stroke:none;fill-rule:nonzero;fill:rgb(0%,0%,0%);fill-opacity:0.235294;" d="M 8.945312 10.46875 C 8.894531 10.699219 8.917969 10.941406 9.027344 11.164062 L 14.738281 22.964844 C 14.933594 23.371094 15.371094 23.613281 15.820312 23.5625 C 16.273438 23.511719 16.644531 23.179688 16.746094 22.738281 L 17.738281 18.441406 L 22.03125 17.449219 C 22.476562 17.347656 22.804688 16.976562 22.855469 16.527344 C 22.871094 16.40625 22.863281 16.289062 22.839844 16.179688 C 22.75 16.582031 22.441406 16.902344 22.03125 16.996094 L 17.738281 17.988281 L 16.746094 22.28125 C 16.644531 22.726562 16.273438 23.054688 15.820312 23.105469 C 15.371094 23.15625 14.933594 22.917969 14.738281 22.507812 L 9.027344 10.707031 C 8.988281 10.628906 8.960938 10.550781 8.945312 10.46875 Z M 8.945312 10.46875 "/>
<path style="fill:none;stroke-width:3;stroke-linecap:round;stroke-linejoin:round;stroke:rgb(12.941177%,12.941177%,12.941177%);stroke-opacity:1;stroke-miterlimit:4;" d="M 148.17335 -63.701948 C 142.673875 -58.577438 141.111525 -50.453213 144.423708 -43.703858 L 235.789983 145.090613 C 238.914685 151.652486 245.914016 155.464622 253.10083 154.6522 C 260.350138 153.839778 266.287071 148.590279 267.911916 141.465959 L 283.7854 72.785018 L 352.466341 56.911534 C 359.590661 55.286689 364.84016 49.349756 365.652582 42.100448 C 366.465004 34.913634 362.652868 27.914303 356.090995 24.789601 L 167.296524 -66.576674 C 160.922133 -69.638881 153.360355 -68.513989 148.17335 -63.701948 Z M 148.17335 -63.701948 " transform="matrix(0.062506,0,0,0.062506,0,13.438783)"/>
</g>
</svg>
